X:228
T:Paddy O Carol TS.228
M:6/8
L:1/8
Q:3/8=110
S:Thomas Sands’ MS,1810,Lincolnshire
R:jig
C:Note next to title “Irish”
O:England;Lincolnshire
Z:vmp.Ruairidh Greig, 2011
K:D
(A/G/)|FDD FDD|F>GF FED|AFF dFF|E>FEE2(A/G/)|
FDD FDD|F>GF FED|AFF dFF|D>EDD2:|
|:(d/e/)|fdd ecc|BdB AGF|fda eca|dB^ga2=g|
fdd ecc|BdB AGF|AFF dFF|D>EDD2:|]

